X:1
T: Bonnie Isabell Robertson
C:James Daniel
R:Reel
Q: 232
K:D
M:4/4
L:1/8
|:AG|FA df gf ed|cd ec AB AG|FA d2 d2 ef|((3gag) ((3fgf) e2 AG|
FA df gf ec|dc BA BA FD|GB AG FA EC|D2 F2 D2:|
|:fg|a2 fd ec Ac|dc dB AF DF|G2 BG FA df|((3gag) ((3fgf) e2 fg|
a^g af ec Ac|dc dB AF DF|GB AG FA EC|D2 F2 D2:|
